packages/definitions/src/definitions/plangs/w/wing/wing.logo.svg

<svg width="1807" height="346" viewBox="0 0 1807 346" fill="none" xmlns="http://www.w3.org/2000/svg">
<path d="M548.451 203.967L558.205 249.048H558.963L569.854 204.346L601.425 80.7528H639.75L588.672 268.59H527.048L501.509 155.509L492.1 110.428H491.342L481.588 155.509L456.049 268.59H395.941L344.863 80.7528H384.291L415.483 203.967L426.374 248.669H427.132L436.886 203.588L465.044 80.7528H519.879L548.417 203.967H548.451Z" fill="#F6F6F6"/>
<path d="M662.291 47.7004V7.13441H703.236V47.7004H662.291ZM663.807 268.59H702.133V80.7529H663.807V268.59Z" fill="#F6F6F6"/>
<path d="M742.699 80.7529H780.267V114.564C792.674 93.1605 811.079 76.9962 840.375 76.9962C877.184 76.9962 904.618 102.535 904.618 149.133V268.59H866.293V152.131C866.293 124.317 851.266 109.67 826.106 109.67C800.946 109.67 781.025 125.076 781.025 161.506V268.556H742.699V80.7529Z" fill="#F6F6F6"/>
<path d="M941.807 281.756H979.753C981.994 302.435 998.916 315.567 1028.21 315.567C1060.51 315.567 1078.57 299.782 1078.57 264.489V231.815C1065.06 254.735 1044.76 267.487 1017.32 267.487C971.861 267.487 936.568 233.297 936.568 172.431C936.568 111.565 971.895 77.0305 1017.32 77.0305C1044.76 77.0305 1065.4 90.1963 1078.95 113.461V80.7872H1116.89V262.214C1116.89 315.567 1083.84 346 1027.49 346C976.789 346 945.598 321.219 941.841 281.756H941.807ZM1027.45 235.538C1059.75 235.538 1078.53 213.755 1078.53 179.945V164.918C1078.53 130.349 1059.75 108.187 1027.45 108.187C995.159 108.187 975.997 129.211 975.997 167.537V177.291C975.997 214.858 995.918 235.503 1027.45 235.503V235.538Z" fill="#F6F6F6"/>
<path d="M1157.08 0H1195.4V236.296H1213.05V268.59H1157.08V0Z" fill="#F6F6F6"/>
<path d="M1237.45 222.372C1237.45 190.457 1263.37 173.155 1292.67 165.642L1354.64 150.236V146.1C1354.64 117.941 1339.99 107.774 1317.07 107.774C1291.53 107.774 1277.64 119.802 1276.88 144.962H1238.18C1240.8 100.26 1274.23 76.9617 1318.55 76.9617C1366.63 76.9617 1392.93 105.12 1392.93 150.201V268.521H1354.98V236.951C1341.85 259.491 1323.41 272.278 1295.25 272.278C1258.06 272.278 1237.42 250.496 1237.42 222.303L1237.45 222.372ZM1307.31 243.81C1334.37 243.81 1354.64 226.542 1354.64 196.868V177.326L1305.42 188.975C1285.5 193.869 1275.74 202.865 1275.74 217.892C1275.74 235.538 1288.53 243.81 1307.31 243.81Z" fill="#F6F6F6"/>
<path d="M1432.42 80.7529H1469.99V114.564C1482.4 93.1605 1500.8 76.9962 1530.1 76.9962C1566.91 76.9962 1594.34 102.535 1594.34 149.133V268.59H1556.02V152.131C1556.02 124.317 1540.99 109.67 1515.83 109.67C1490.67 109.67 1470.75 125.076 1470.75 161.506V268.556H1432.42V80.7529Z" fill="#F6F6F6"/>
<path d="M1631.53 281.756H1669.48C1671.72 302.435 1688.64 315.567 1717.94 315.567C1750.23 315.567 1768.29 299.782 1768.29 264.489V231.815C1754.78 254.735 1734.48 267.487 1707.05 267.487C1661.59 267.487 1626.29 233.297 1626.29 172.431C1626.29 111.565 1661.62 77.0305 1707.05 77.0305C1734.48 77.0305 1755.13 90.1963 1768.67 113.461V80.7872H1806.62V262.214C1806.62 315.567 1773.56 346 1717.21 346C1666.51 346 1635.32 321.219 1631.57 281.756H1631.53ZM1717.18 235.538C1749.47 235.538 1768.26 213.755 1768.26 179.945V164.918C1768.26 130.349 1749.47 108.187 1717.18 108.187C1684.88 108.187 1665.72 129.211 1665.72 167.537V177.291C1665.72 214.858 1685.64 235.503 1717.18 235.503V235.538Z" fill="#F6F6F6"/>
<path d="M230.919 80.7529C215.169 80.7529 201.279 89.0247 189.664 105.396C177.705 122.318 168.985 146.375 160.575 169.64C157.749 177.429 154.923 185.287 151.959 192.835C148.995 185.253 146.134 177.394 143.308 169.571C134.898 146.306 126.213 122.249 114.253 105.327C102.639 88.9902 88.7489 80.684 72.9981 80.684H0V107.877C4.34266 107.877 11.0979 109.256 19.5765 121.25C29.3991 135.14 37.4641 157.404 45.2533 179.014C52.5945 199.28 60.1424 220.27 69.8962 236.399C82.6485 257.596 97.6065 267.867 115.598 267.867C132.003 267.867 143.894 258.837 151.959 249.531C160.024 258.837 171.914 267.867 188.32 267.867C206.311 267.867 221.235 257.561 234.021 236.399C243.741 220.27 251.323 199.28 258.664 178.945C266.453 157.404 274.484 135.14 284.307 121.25C292.82 109.256 299.575 107.877 303.918 107.877V80.6495H230.919V80.7529ZM115.598 240.777C96.0211 240.777 82.3727 203.002 70.3098 169.64C62.3138 147.547 54.0765 124.697 42.9786 107.981H72.9636C77.3063 107.981 84.0616 109.359 92.5746 121.353C102.397 135.243 110.462 157.508 118.251 179.083C123.938 194.868 129.832 211.102 136.725 225.129C127.626 239.019 120.423 240.777 115.598 240.777ZM233.573 169.709C221.545 203.037 207.896 240.777 188.32 240.777C183.495 240.777 176.291 239.019 167.193 225.129C174.086 211.102 179.945 194.868 185.666 179.049C193.455 157.508 201.486 135.243 211.308 121.353C219.821 109.359 226.577 107.981 230.919 107.981H260.904C249.841 124.697 241.569 147.547 233.573 169.709Z" fill="#F6F6F6"/>
</svg>

<svg xmlns="http://www.w3.org/2000/svg" width="1807" height="346" fill="none"><path fill="#F6F6F6" d="m548.451 203.967 9.754 45.081h.758l10.891-44.702 31.571-123.593h38.325L588.672 268.59h-61.624l-25.539-113.081-9.409-45.081h-.758l-9.754 45.081-25.539 113.081h-60.108L344.863 80.753h39.428l31.192 123.214 10.891 44.702h.758l9.754-45.081 28.158-122.835h54.835l28.538 123.214zM662.291 47.7V7.134h40.945V47.7zm1.516 220.89h38.326V80.753h-38.326zM742.699 80.753h37.568v33.811c12.407-21.403 30.812-37.568 60.108-37.568 36.809 0 64.243 25.539 64.243 72.137V268.59h-38.325V152.131c0-27.814-15.027-42.461-40.187-42.461s-45.081 15.406-45.081 51.836v107.05h-38.326zM941.807 281.756h37.946c2.241 20.679 19.163 33.811 48.457 33.811 32.3 0 50.36-15.785 50.36-51.078v-32.674c-13.51 22.92-33.81 35.672-61.25 35.672-45.459 0-80.752-34.19-80.752-95.056s35.327-95.4 80.752-95.4c27.44 0 48.08 13.165 61.63 36.43V80.787h37.94v181.427c0 53.353-33.05 83.786-89.4 83.786-50.701 0-81.892-24.781-85.649-64.244zm85.643-46.218c32.3 0 51.08-21.783 51.08-55.593v-15.027c0-34.569-18.78-56.731-51.08-56.731-32.291 0-51.453 21.024-51.453 59.35v9.754c0 37.567 19.921 58.212 51.453 58.212zM1157.08 0h38.32v236.296h17.65v32.294h-55.97zM1237.45 222.372c0-31.915 25.92-49.217 55.22-56.73l61.97-15.406V146.1c0-28.159-14.65-38.326-37.57-38.326-25.54 0-39.43 12.028-40.19 37.188h-38.7c2.62-44.702 36.05-68 80.37-68 48.08 0 74.38 28.158 74.38 73.239v118.32h-37.95v-31.57c-13.13 22.54-31.57 35.327-59.73 35.327-37.19 0-57.83-21.782-57.83-49.975zm69.86 21.438c27.06 0 47.33-17.268 47.33-46.942v-19.542l-49.22 11.649c-19.92 4.894-29.68 13.89-29.68 28.917 0 17.646 12.79 25.918 31.57 25.918M1432.42 80.753h37.57v33.811c12.41-21.403 30.81-37.568 60.11-37.568 36.81 0 64.24 25.539 64.24 72.137V268.59h-38.32V152.131c0-27.814-15.03-42.461-40.19-42.461s-45.08 15.406-45.08 51.836v107.05h-38.33zM1631.53 281.756h37.95c2.24 20.679 19.16 33.811 48.46 33.811 32.29 0 50.35-15.785 50.35-51.078v-32.674c-13.51 22.92-33.81 35.672-61.24 35.672-45.46 0-80.76-34.19-80.76-95.056s35.33-95.4 80.76-95.4c27.43 0 48.08 13.165 61.62 36.43V80.787h37.95v181.427c0 53.353-33.06 83.786-89.41 83.786-50.7 0-81.89-24.781-85.64-64.244zm85.65-46.218c32.29 0 51.08-21.783 51.08-55.593v-15.027c0-34.569-18.79-56.731-51.08-56.731-32.3 0-51.46 21.024-51.46 59.35v9.754c0 37.567 19.92 58.212 51.46 58.212zM230.919 80.753c-15.75 0-29.64 8.272-41.255 24.643-11.959 16.922-20.679 40.979-29.089 64.244-2.826 7.789-5.652 15.647-8.616 23.195-2.964-7.582-5.825-15.441-8.651-23.264-8.41-23.265-17.095-47.322-29.055-64.244-11.614-16.337-25.504-24.643-41.255-24.643H0v27.193c4.343 0 11.098 1.379 19.577 13.373 9.822 13.89 17.887 36.154 25.676 57.764 7.341 20.266 14.89 41.256 24.643 57.385 12.752 21.197 27.71 31.468 45.702 31.468 16.405 0 28.296-9.03 36.361-18.336 8.065 9.306 19.955 18.336 36.361 18.336 17.991 0 32.915-10.306 45.701-31.468 9.72-16.129 17.302-37.119 24.643-57.454 7.789-21.541 15.82-43.805 25.643-57.695 8.513-11.994 15.268-13.373 19.611-13.373V80.65h-72.999zM115.598 240.777c-19.577 0-33.225-37.775-45.288-71.137-7.996-22.093-16.233-44.943-27.331-61.659h29.985c4.342 0 11.098 1.378 19.61 13.372 9.823 13.89 17.888 36.155 25.677 57.73 5.687 15.785 11.581 32.019 18.474 46.046-9.099 13.89-16.302 15.648-21.127 15.648m117.975-71.068c-12.028 33.328-25.677 71.068-45.253 71.068-4.825 0-12.029-1.758-21.127-15.648 6.893-14.027 12.752-30.261 18.473-46.08 7.789-21.541 15.82-43.806 25.642-57.696 8.513-11.994 15.269-13.372 19.611-13.372h29.985c-11.063 16.716-19.335 39.566-27.331 61.728"/></svg>
